X: 4588
T: Bould Thady Quill, The
R: jig
M: 6/8
K: Gmajor
D|:GBA BGG|AGF GBd|gfg edB|BAG A2B|
deB dBA|B(3dBA GBd|~g3 edB|1 AGF G2 D:|2 AGF G2 B||
|:def gfg|agf edd|gfg edB|BAG A2 B|
deB dBA|B(3dBA GBd||~g3 edB|1 AGF G2 B:|2 AGF G2 D||

